X:2001
T:Älvrospolska efter Anders Eriksson Moberg
R:Polska
O:Älvros, Härjedalen
S:efter Anders Eriksson Moberg
B:Svenska låtar Jämtland-Härjedalen nr 726
N:obs! noterat med H i andra reprisen, ej B, såväl på A-strängen som på E-strängen!
Z:abc-transkr. av Lennart Sohlman
M:3/4
L:1/8
R:Polska
K:Ddor
vfg/f/ e2 d2|^cA/c/ dd ez/g/|(f/e/)f/g/ af ed|(^c/d/)e/c/ [A3A3] g|!
fg/f/ e2 d2|^cA/c/ dd ez/g/|(f/e/)f/g/ af ed|(^c/d/)e/c/ d4:|:!
aA Aa ab/a/|ga/g/ Bg ga/g/|fa/f/ ef/e/ de/f/|e/g/e/^c/ dA FE|!
Da Aa ab/a/|ga/g/ Bg ga/g/|fa/f/ ef/e/ de/f/|(e/g/)e/^c/ [D4d4]:|]
(:musicend:)

... och Einar Övergaard lämnar oss denna tidiga version (upptecknad 1899 - Moberg beskrivs här som "20 års yngling"):

(:music:)
